X: 13541
T: Flowers Of The Red Mill, The
R: reel
M: 4/4
K: Gmajor
||aged BGGF|~G2dG eGdg|aged BGGA|(3Bcd ed BAA2|
aged BGGF|~G3d eGdg|aged BGGA|Bged BA~A2||
a2~a2 ~g3d|egdg egd2|~a3b ~g3d|egdB BA~A2|
~a3b ~g3d|egdg efga|agag gede|gedB BA~A2||

